packages/core/src/svgs/whale.svg

<svg width="24" height="24" viewBox="0 0 24 24" fill="none" xmlns="http://www.w3.org/2000/svg">
<g clip-path="url(#clip0_31_20693)">
<path d="M0 0H24V24H0V0Z" fill="#F0F3FA"/>
<path fill-rule="evenodd" clip-rule="evenodd" d="M5.14282 12.0002C5.14282 11.8562 5.14711 11.7131 5.15568 11.5716H5.14282V10.2859H17.3027C16.5797 8.04749 14.4788 6.42878 12 6.42878C11.8555 6.42878 11.7128 6.43435 11.5714 6.44507V5.15592C11.7128 5.14735 11.856 5.14307 12 5.14307C15.7873 5.14307 18.8571 8.21249 18.8571 12.0002C18.8571 15.7871 15.7873 18.8574 12 18.8574C8.21268 18.8574 5.14282 15.7875 5.14282 12.0002ZM6.42854 12.0002C6.42854 11.8558 6.43411 11.7131 6.44482 11.5716H7.30497C7.29211 11.7131 7.28568 11.8558 7.28568 12.0002C7.28568 14.6038 9.39639 16.7145 12 16.7145C12.1418 16.7145 12.2828 16.7081 12.4213 16.6961V15.4031C11.9031 15.4673 11.3771 15.4123 10.8835 15.2423C10.3898 15.0724 9.94146 14.7919 9.57266 14.4223C9.20387 14.0527 8.92435 13.6038 8.75543 13.1098C8.58651 12.6157 8.53265 12.0896 8.59797 11.5716H17.5551C17.5658 11.7131 17.5714 11.8558 17.5714 12.0002C17.5714 15.0774 15.0771 17.5716 12 17.5716C8.92282 17.5716 6.42854 15.0774 6.42854 12.0002ZM12 14.5716C12.2273 14.5716 12.4453 14.4813 12.6061 14.3206C12.7668 14.1598 12.8571 13.9418 12.8571 13.7145C12.8571 13.4872 12.7668 13.2691 12.6061 13.1084C12.4453 12.9477 12.2273 12.8574 12 12.8574C11.7726 12.8574 11.5546 12.9477 11.3939 13.1084C11.2331 13.2691 11.1428 13.4872 11.1428 13.7145C11.1428 13.9418 11.2331 14.1598 11.3939 14.3206C11.5546 14.4813 11.7726 14.5716 12 14.5716Z" fill="black"/>
</g>
<defs>
<clipPath id="clip0_31_20693">
<rect width="24" height="24" fill="white"/>
</clipPath>
</defs>
</svg>

<svg xmlns="http://www.w3.org/2000/svg" width="24" height="24" fill="none" viewBox="0 0 24 24"><g clip-path="url(#a)"><path fill="#F0F3FA" d="M0 0h24v24H0z"/><path fill="#000" fill-rule="evenodd" d="M5.143 12q0-.216.013-.428h-.013v-1.286h12.16a5.574 5.574 0 0 0-5.732-3.84v-1.29q.213-.013.429-.013A6.857 6.857 0 1 1 5.143 12m1.286 0q0-.216.016-.428h.86a4.714 4.714 0 0 0 5.116 5.125v-1.294a3.428 3.428 0 0 1-3.823-3.831h8.957q.015.212.016.428A5.571 5.571 0 1 1 6.43 12M12 14.572a.857.857 0 1 0 0-1.715.857.857 0 0 0 0 1.715" clip-rule="evenodd"/></g><defs><clipPath id="a"><path fill="#fff" d="M0 0h24v24H0z"/></clipPath></defs></svg>
